!!!COM: Bach, Johann Sebastian
!!!OTA: Das wohltemperirte Clavier
!!!OPR: Das wohltemperierte Klavier
!!!OTL: Fuga 17, Vol. 1
!!!XEN: The Well-Tempered Clavier, Volume 1, Fugue 17.
!!!ONB: A-flat major, 4-part
!!!SCT: BWV 862b
!!!YEC: Copyright 1994, David Huron
!!!YEM: Rights to all derivative electronic formats reserved.
**kern	**kern	**kern	**kern
*staff2	*staff2	*staff1	*staff1
*clefF4	*clefF4	*clefG2	*clefG2
*k[b-e-a-d-]	*k[b-e-a-d-]	*k[b-e-a-d-]	*k[b-e-a-d-]
*M4/4	*M4/4	*M4/4	*M4/4
*A-:	*A-:	*A-:	*A-:
*MM54	*MM54	*MM54	*MM54
=1	=1	=1	=1
1r	4r	1r	1r
.	8A-	.	.
.	8e-	.	.
.	8c	.	.
.	8A-	.	.
.	8f	.	.
.	8d-	.	.
=2	=2	=2	=2
4r	[4e-	1r	1r
8E-	16e-]	.	.
.	16d-	.	.
8A-	16c	.	.
.	16d-	.	.
8G	16e-	.	.
.	16f	.	.
8E-	16g	.	.
.	16e-	.	.
8c	16a-	.	.
.	16b-	.	.
8A-	16cc	.	.
.	16b-	.	.
=3	=3	=3	=3
8B-	16a-	1r	1r
.	16g	.	.
8E-	16f	.	.
.	16a-	.	.
8B-	2g	.	.
8G	.	.	.
8A-	.	.	.
8E-	.	.	.
8A-	[4f	.	.
8F	.	.	.
=4	=4	=4	=4
[4G	16f]	1r	1r
.	16e-	.	.
.	16dn	.	.
.	16f	.	.
16G]	[4e-	.	.
16C	.	.	.
16D-	.	.	.
16E-	.	.	.
16F	8e-]	.	.
16G	.	.	.
16A-	16d-	.	.
16F	16c	.	.
16B-	16d-	.	.
16c	16f	.	.
16d-	16b-	.	.
16c	16a-	.	.
=5	=5	=5	=5
16B-	16g	1r	4r
16A-	16f	.	.
16G	16e-	.	.
16B-	16d-	.	.
[4A-	16c	.	8a-
.	16B-	.	.
.	16c	.	8ee-
.	16d-	.	.
16A-]	4e-	.	8cc
16AA-	.	.	.
16BB-	.	.	8a-
16C	.	.	.
16D-	4A-	.	8ff
16E-	.	.	.
16F	.	.	8dd-
16E-	.	.	.
=6	=6	=6	=6
16D-	4G	4r	2.ee-
16C	.	.	.
16BB-	.	.	.
16D-	.	.	.
8.C	16A-	8e-	.
.	16B-	.	.
.	8c	8a-	.
16Dn	.	.	.
16E-	8.B-	8g	.
16F	.	.	.
[8G	.	8e-	.
.	16B-	.	.
16G]	8A-	8cc	4aa-
16G	.	.	.
16F	8c	8a-	.
16E-	.	.	.
=7	=7	=7	=7
16Dn	8F	[4b-	4aa-
16BB-	.	.	.
16C	8r	.	.
16D	.	.	.
[4E-	4r	16b-]	4gg
.	.	16e-	.
.	.	16f	.
.	.	16g	.
8E-]	2r	16a-	[2ff
.	.	16b-	.
8A-	.	16cc	.
.	.	16b-	.
8D	.	16a-	.
.	.	16g	.
8B-	.	16f	.
.	.	16a-	.
=8	=8	=8	=8
[4E-	1r	2g	16ff]
.	.	.	16b-
.	.	.	16cc
.	.	.	16ddn
16E-]	.	.	[4ee-
16E-	.	.	.
16F	.	.	.
16G	.	.	.
16A-	.	2f	8ee-]
16B-	.	.	.
16c	.	.	8aa-
16B-	.	.	.
16A-	.	.	8dd-
16G	.	.	.
16F	.	.	8bb-
16A-	.	.	.
=9	=9	=9	=9
8G	1r	16r	4dd-
.	.	16e-	.
8E-	.	16f	.
.	.	16g	.
16r	.	2a-	4cc
16AA-	.	.	.
16BB-	.	.	.
16C	.	.	.
16D-	.	.	2b-
16E-	.	.	.
16F	.	.	.
16E-	.	.	.
16D-	.	4g	.
16C	.	.	.
16BB-	.	.	.
16D-	.	.	.
=10	=10	=10	=10
[4C	4r	8a-	[2a-
.	.	16g	.
.	.	16f	.
16C]	8A-	16e-	.
16D-	.	16d-	.
16E-	8e-	16c	.
16C	.	16d-	.
[4F	8c	8e-	16a-]
.	.	.	16a-
.	8A-	8r	16b-
.	.	.	16cc
16F]	8f	8r	[4dd-
16E-	.	.	.
16F	8d-	8A-	.
16D-	.	.	.
=11	=11	=11	=11
16A-	4e-	8a-	16dd-]
16G	.	.	16b-
16A-	.	8r	16cc
16B-	.	.	16ee-
8c	2e-	4r	16aa-
.	.	.	16gg
8G	.	.	16aa-
.	.	.	16bb-
8A-	.	2r	16ccc
.	.	.	16bb-
8F	.	.	16aa-
.	.	.	16gg
8B-	[4d-	.	16ff
.	.	.	16gg
8F	.	.	16aa-
.	.	.	16ccc
=12	=12	=12	=12
8G	4d-]	1r	16bb-
.	.	.	16aa-
8E-	.	.	16gg
.	.	.	16ff
8A-	2c	.	16ee-
.	.	.	16ff
8E-	.	.	16gg
.	.	.	16bb-
8F	.	.	16aa-
.	.	.	16gg
8Dn	.	.	16ff
.	.	.	16ee-
8G	[4B-	.	16ddn
.	.	.	16ee-
8D	.	.	16ff
.	.	.	16aa-
=13	=13	=13	=13
8En	4B-]	4r	16gg
.	.	.	16ff
8C	.	.	16een
.	.	.	16gg
8Dn	8A-	8f	16ff
.	.	.	16ee
8E-	[8G	8cc	16ff
.	.	.	16gg
4F	16G]	8a-	8cc
.	16B-	.	.
.	16A-	8f	[8ff
.	16G	.	.
4BB-	16F	8dd-	8ff]
.	16En	.	.
.	16F	8b-	16gg
.	16G	.	16ee
=14	=14	=14	=14
4F	16A-	8cc	16ff
.	16B-	.	16een
.	16A-	16ddn	16ff
.	16G	16een	16gg
16r	8F	8ff	2aa-
16FF	.	.	.
16GG	8r	8cc	.
16AA-	.	.	.
16BB-	2r	8dd-	.
16AA-	.	.	.
16GG	.	8b-	.
16FF	.	.	.
16EE-	.	8ee-	[4gg
16FF	.	.	.
16GG	.	8b-	.
16BB-	.	.	.
=15	=15	=15	=15
16AA-	1r	8cc	4gg]
16GG	.	.	.
16FF	.	8a-	.
16EE-	.	.	.
16DD-	.	8dd-	2ff
16EE-	.	.	.
16FF	.	8a-	.
16AA-	.	.	.
8GG	.	16b-	.
.	.	16cc	.
8BB-	.	16dd-	.
.	.	16cc	.
8C	.	16b-	4een
.	.	16a-	.
8CC	.	16g	.
.	.	16b-	.
=16	=16	=16	=16
16FF	1r	4a-	[4ff
16C	.	.	.
16Dn	.	.	.
16En	.	.	.
[4F	.	4r	16ff]
.	.	.	16ee-
.	.	.	16dd-
.	.	.	16cc
8F]	.	2r	16b-
.	.	.	16a-
8B-	.	.	16g
.	.	.	16a-
8E-	.	.	16b-
.	.	.	16dd-
8c	.	.	16cc
.	.	.	16b-
=17	=17	=17	=17
8E-	4r	1r	16an
.	.	.	16cc
8An	.	.	16dd-
.	.	.	16ee-
4D-	8B-	.	16ff
.	.	.	16ee-
.	8f	.	16dd-
.	.	.	16cc
4G-	8d-	.	16b-
.	.	.	16dd-
.	8B-	.	16gg-
.	.	.	16ff
8r	8g-	.	16ee-
.	.	.	16dd-
16G-	8e-	.	16cc
16F	.	.	16b-
=18	=18	=18	=18
16E-	4f	4r	4an
16G-	.	.	.
16F	.	.	.
16E-	.	.	.
16D-	2B-	8f	16b-
16C	.	.	16cc
16BB-	.	8b-	[8dd-
16D-	.	.	.
16E-	.	8g-	8dd-]
16F	.	.	.
16G-	.	8e-	16cc
16E-	.	.	16dd-
4F	16An	8cc	[4ee-
.	16B-	.	.
.	16c	8an	.
.	16A	.	.
=19	=19	=19	=19
4BB-	8F	4b-	16ee-]
.	.	.	16cc
.	16B-	.	16dd-
.	16c	.	16ff
4r	2d-	16r	8bb-
.	.	16f	.
.	.	16g-	8ff
.	.	16a-	.
2r	.	16b-	8gg-
.	.	16a-	.
.	.	16g-	8ee-
.	.	16f	.
.	[4c	16e-	8aa-
.	.	16f	.
.	.	16g-	8ee-
.	.	16b-	.
=20	=20	=20	=20
1r	4c]	16a-	8ff
.	.	16g-	.
.	.	16f	16dd-
.	.	16e-	16ff
.	2B-	16d-	8gg-
.	.	16e-	.
.	.	16f	8dd-
.	.	16a-	.
.	.	16g-	8ee-
.	.	16f	.
.	.	16e-	8cc
.	.	16d-	.
.	4An	16c	8ff
.	.	16d-	.
.	.	16e-	8cc
.	.	16g-	.
=21	=21	=21	=21
1r	16B-	4f	2.dd-
.	16e-	.	.
.	16d-	.	.
.	16c	.	.
.	16B-	8f	.
.	16A-	.	.
.	16Gn	8b-	.
.	16F	.	.
.	16E-	8gn	.
.	16d-	.	.
.	16c	[8e-	.
.	16B-	.	.
.	16A-	8e-]	8cc
.	16G	.	.
.	16F	8a-	8ff
.	16G	.	.
=22	=22	=22	=22
1r	16A-	8f	8ddn
.	16c	.	.
.	16B-	8dn	8b-
.	16A-	.	.
.	16G	8r	2ee-
.	16F	.	.
.	16E-	8g	.
.	16D-	.	.
.	8C	16a-	.
.	.	16b-	.
.	8A-	16cc	.
.	.	16b-	.
.	8B-	16a-	4dd
.	.	16g	.
.	8BB-	16f	.
.	.	16a-	.
=23	=23	=23	=23
1r	[4E-	16g	4ee-
.	.	16a-	.
.	.	16b-	.
.	.	16g	.
.	16E-]	8e-	4r
.	16F	.	.
.	16G	8b-	.
.	16A-	.	.
.	16B-	8g	2r
.	16c	.	.
.	16d-	8e-	.
.	16c	.	.
.	16B-	8dd-	.
.	16A-	.	.
.	16G	8b-	.
.	16B-	.	.
=24	=24	=24	=24
1r	16A-	4cc	4r
.	16E-	.	.
.	16F	.	.
.	16G	.	.
.	16A-	4r	8a-
.	16B-	.	.
.	16c	.	8ee-
.	16d-	.	.
.	16e-	4r	8cc
.	16f	.	.
.	16g-	.	8a-
.	16f	.	.
.	16e-	8cc	8gg-
.	16d-	.	.
.	16c	[8ee-	8ee-
.	16e-	.	.
=25	=25	=25	=25
1r	16d-	8ee-]	4ff
.	16e-	.	.
.	16f	8a-	.
.	16e-	.	.
.	16d-	8b-	8ff
.	16c	.	.
.	16B-	[8dd-	8ggn
.	16d-	.	.
.	16c	8dd-]	4ee-
.	16d-	.	.
.	16e-	8g	.
.	16d-	.	.
.	16c	8an	8ee-
.	16B-	.	.
.	16An	[8cc	8ff
.	16c	.	.
=26	=26	=26	=26
1r	16B-	8cc]	4dd-
.	16c	.	.
.	16d-	8f	.
.	16c	.	.
.	16B-	2b-	8dd-
.	16A-	.	.
.	16G	.	8bb-
.	16B-	.	.
.	16A-	.	8cc
.	16B-	.	.
.	16A-	.	16dd-
.	16G	.	16b-
.	16F	[4a-	8cc
.	16E-	.	.
.	16F	.	8aa-
.	16D-	.	.
=27	=27	=27	=27
4r	16E-	16a-]	4b-
.	16D-	16g	.
.	16C	16a-	.
.	16BB-	16b-	.
8AA-	8AA-	[4cc	16r
.	.	.	16ee-
8E-	8r	.	16ff
.	.	.	16gg
8C	2r	16cc]	[4aa-
.	.	16dd-	.
8AA-	.	16ee-	.
.	.	16cc	.
8F	.	[4dd-	16aa-]
.	.	.	16gg
8D-	.	.	16ff
.	.	.	16aa-
=28	=28	=28	=28
4E-	4r	16dd-]	[2.gg
.	.	16cc	.
.	.	16b-	.
.	.	16dd-	.
16En	8G	[4cc	.
16B-	.	.	.
16A-	8c	.	.
16G	.	.	.
2F	8A-	16cc]	.
.	.	16b-	.
.	8F	16a-	.
.	.	16g	.
.	8dn	8.a-	16gg]
.	.	.	16cc
.	8Bn	.	[8ff
.	.	16a-	.
=29	=29	=29	=29
2C	16c	8g	16ff]
.	16E-	.	16ee-
.	16F	8r	16dd-
.	16G	.	16ff
.	16A-	8e-	2ee-
.	16B-	.	.
.	16c	8a-	.
.	16B-	.	.
2D-	16A-	8f	.
.	16G	.	.
.	16F	8d-	.
.	16G	.	.
.	16A-	8b-	[4dd-
.	16G	.	.
.	16F	8g	.
.	16E-	.	.
=30	=30	=30	=30
[4AA-	16F	4a-	16dd-]
.	16E-	.	16cc
.	16D-	.	16b-
.	16F	.	16dd-
16AA-]	8E-	4r	8cc
16FF	.	.	.
16GG	8r	.	8ff
16AA-	.	.	.
16BB-	4r	4r	8dd-
16C	.	.	.
16D-	.	.	8b-
16E-	.	.	.
16D-	8r	8r	8gg-
16C	.	.	.
16BB-	8cc	8ee-	8ee-
16AA-	.	.	.
=31	=31	=31	=31
16D-	4a-	8ee-	4ff
16C	.	.	.
16D-	.	8dd-	.
16F	.	.	.
16E-	8r	8r	8aa-
16Dn	.	.	.
16C	8ddn	8ff	8ff
16BB-	.	.	.
16E-	4b-	8ff	4gg
16D	.	.	.
16E-	.	8ee-	.
16G	.	.	.
16F	8r	8r	8bb-
16En	.	.	.
16D	8een	8gg	8gg
16C	.	.	.
=32	=32	=32	=32
16F	8cc	8ff	8aa-
16G	.	.	.
16A-	8r	8r	8ff
16F	.	.	.
16B-	4r	8r	[4dd-
16A-	.	.	.
16G	.	8b-	.
16F	.	.	.
16E-	8r	8g	8dd-]
16D-	.	.	.
16C	8g	8b-	8ee-
16BB-	.	.	.
16AA-	8a-	8cc	8cc
16BB-	.	.	.
16C	8f	8a-	8ff
16D-	.	.	.
=33	=33	=33	=33
16E-	4e-	4.a-	4cc
16D-	.	.	.
16C	.	.	.
16D-	.	.	.
8E-	4d-	.	[4b-
8EE-	.	8g	.
4FF	4c	4f	8b-]
.	.	.	16a-
.	.	.	16g
16r	8r	8r	8a-
16EE-	.	.	.
16FF	8e-	8b-	8ee-
16GG	.	.	.
=34	=34	=34	=34
16AA-	8e-	8a-	8cc
16BB-	.	.	.
16C	8r	8r	8a-
16E-	.	.	.
16D-	8r	8r	8ff
16C	.	.	.
16BB-	8f	8b-	8dd-
16AA-	.	.	.
16GG	8e-	8b-	8ee-
16FF	.	.	.
16EE-	8r	8r	8g
16DD-	.	.	.
16CC	8r	8r	[4a-
16EE-	.	.	.
16DD-	8B-	8f	.
16FF	.	.	.
=35	=35	=35	=35
2EE-	4B-	16B-	4a-]
.	.	16c	.
.	.	16d-	.
.	.	16f	.
.	4E-	16e-	4g
.	.	16d-	.
.	.	16c	.
.	.	16d-	.
2AA-;	2E-;	2c;	2a-;
==	==	==	==
*-	*-	*-	*-
!!!CDT: 1685/3/-1750/7/28
!!!OCY: Deutschland
!!!PPP: Coethen; Cothen; Co2then
!!!ODT: <1722//
!!!PDT: 1722
!!!AFR: fuga; fugue
!!!AST: polyphony
!!!AMT: simple quadruple
!!!SCA: Bach-Werke-Verzeichnis
!!!YOR: Bach Gesellschaft
!!!SMS: British Library, various
!!!AIN: cemba; clavi
!!!EEV: 1.0
!!!RDT: 1986 November 22
!!!YER: 1994 August 10
!!!EFL: 17/48
!!!VTS: 1288836632
